X:1
T:Title
%%score ( 1 2 ) { 3 | ( 4 5 ) }
L:1/8
Q:1/4=92
M:4/4
K:Bb
V:1 treble nm="Grand Piano, Soprano"
V:2 treble 
V:3 bass nm="Choir Pad, He Leads Me Still, 1910"
V:4 bass 
V:5 bass 
V:1
 [B,D][CE][C=E][DF]- [DF]2 [Fd][_Ec] | [DB][DB][B,D][CE]- [CE]4 | %2
w: By~Charles~Teller~&~Charles~H.~Gabriel,~1910 * * * * * *||
 [B,D][A,C][B,D][CE]- [CE]3/2 z/ [DF][EG] | z2 z F- F4 | [B,D][CE][_D=E][=DF]- [DF]2 [Fd][_Ec] | %5
w: |||
 [DB][FB]F[FA]- [FA] [EG]3 | GA[GB]d- [Fd-][F-d]/F/ [DB][Ge] | %7
w: ||
 [Fd][Fd]- [Fd]/[Ec]/B- [FB-][=EB-][_EB-][DB] | z2 z c- c4 | z2 z =F- F4 | z2 z d- d2 z d | %11
w: ||||
 z G z F z4 | [DF][DB][Ec][Fd]- [Fd]4 | [Fd][Ge][_Af][EG]- [EG]4 | %14
w: |||
 [EG][FA][GB][Fe]- [Fe]2 [DB][Ge] | [Fd][Fd]- [Fd]/[Ec]/[DB]- [DB]4- | [DB]2 z2 z4 |] %17
w: |||
V:2
 x8 | x8 | x8 | [EA][EG]- [EG]/C/D- D E2 D | x8 | x8 | z2 z F z4 | z2 z D z4 | BA .B2 EEEE | %9
 AG .^F2 DDDD | FB .c2 GG[Gd]=E- | [Ec]=E-[Ed]c- [_Ec-][=Ec-][Ec-][_Ec] | x8 | x8 | x8 | x8 | x8 |] %17
V:3
 z2 z B,, F, B,2 F,- | F,3 A,- A,4 | z8 | z2 z B, _A,=A,A,=B, | z2 z B,, F, B,2 F,- | %5
 F, B,2 B,- B, z z[K:treble] B, | z _D2 =D DD z2 | z[K:bass] A,2 B, _A,G,^F,=F, | z4 A,A,A,A, | %9
 z4 B,B,B,B, | z4 B,B,B,B,- | B, B,2 A, A,B,B,A, | z4 B,B,B,B, | z4 B,B,B,B, | z4 B,B, z2 | %15
 z A,- A,/F,/F,- F,4- | F,2 z2 z4 |] %17
V:4
 z8 | z2 z C, F,,A,,C,F, | z4 z F,3- | F, z z2 z4 | z8 | z4 z .B,3 | %6
 z [=E,B,]2 [F,B,] [F,B,][F,B,] z2 | z F,,2 B,,- B,,2- B,,/ z/ B,, | z4 F,F,F,F, | %9
 z4 B,,B,,B,,B,, | z4 G,G,G,C,- | C, C,2 F, ^F,G,C,=F, | z4 B,,B,,B,,B,, | z4 E,E,E,E, | %14
 z4 F,F, z2 | z F,2 B,,- B,,4- | B,,2 z2 z4 |] %17
V:5
 x8 | x8 | z2 z F,, .C,2 z A,- | A, E,2 D, =B,,C,F,,_B,, | x8 | z D,2 E, .G,2 G,E, | x8 | x8 | x8 | %9
 x8 | x8 | x8 | x8 | x8 | x8 | x8 | x8 |] %17

